X: 19
T:Drunken Piper
% Nottingham Music Database
S:Kevin Briggs, via EF
M:4/4
L:1/4
K:Am
P:A
|:e/2|"Am"A/2A/2A/2B/2 e3/2f/2|"Am"e/2d/2B/2d/2 eg|"G"G/2G/2G/2B/2 d3/2e/2|\
"G"d/2B/2G/2B/2 de|
"Am"A/2A/2A/2B/2 e3/2f/2|"Am"e/2d/2B/2d/2 ea|"G"ge/2g/2 e/2f/2e/2d/2|"Am"BA A3/2:|
P:B
e/2|"Am"a2 ea|"Am"e/2d/2e/2^f/2 ga|"G"G/2G/2G/2B/2 d3/2e/2|"G"d/2B/2G/2B/2 de|
"Am"a2 ea|"Am"e/2d/2e/2^f/2 ga|"G"ge/2g/2 e/2f/2e/2d/2|"Am"BA Ae/2z/2||
"Am"a2 ea|"Am"e/2d/2e/2^f/2 ga|"G"G/2G/2G/2B/2 d3/2e/2|"G"d/2B/2G/2B/2 de|
"Am"A/2A/2A/2B/2 e3/2f/2|"Am"e/2d/2B/2d/2 ea|"G"ge/2g/2 e/2f/2e/2d/2|"Am"BA A\
||<end>
<start>
